X:1
T:Title
%%score { ( 1 4 5 ) | ( 2 3 ) }
L:1/8
Q:1/4=100
M:6/8
K:F
V:1 treble nm="Grand Piano"
V:4 treble 
V:5 treble 
V:2 bass 
V:3 bass 
V:1
 [DF]3 [^CE]2 [DF] | [DB]3- [DB]2 [DB] | B2 A cBG | [DF]6 | [DF]3 [^CE]2 [DF] | [DB]3- [DB]2 [DB] | %6
w: R.~Frank~Lehman * *||||||
 [EB]2 [EG] [EA]2 [EB] | c3 .F3 | [DF]3 [^CE]2 [DF] | [DB]3- [DB]2 [DB] | B2 A cBG | [DF]6 | %12
w: ||||||
 [DB]3 [_EA]2 [FB] | c3 G3 | z3 z Bc | [B,DB]6 | z[K:bass] DD z DD | z BB z BB | z _EE z ^FF | %19
w: |||||||
 z FF FFF | z DD z D[K:treble]D | z BB z FF | z _EE z BB | z .A2 z3 | D3 F3 | d3 B3 | G3 B3 | F6 | %28
w: |||||||||
 [DB]3 [_EA]2 [F_A] | [_EG]3 f2 _e | d3 c3 | [DB]6 |] %32
w: ||||
V:2
 [B,,B,]3 [B,,B,]2 [B,,B,] | [B,,F,]3- [B,,F,]2 [B,,F,] | %2
 [_E,G,_E]2 [E,^F,E] [E,E]-[E,G,E][E,B,E] | [B,,B,]6 | [B,,B,]3 [B,,B,]2 [B,,B,] | %5
 [B,,F,]3- [B,,F,]2 [B,,F,] | [C,G,]2 [C,B,] [C,C]2 [C,G,] | [F,A,_E]6 | %8
 [B,,B,]3 [B,,B,]2 [B,,B,] | [B,,F,]3- [B,,F,]2 [B,,F,] | %10
 [_E,G,_E]2 [E,^F,E] [E,E]-[E,G,E][E,B,E] | [B,,B,]6 | [B,,F,]3 [C,F,]2 [D,_A,] | %13
 [_E,G,_E]3 [E,B,E]3 | _E3 z3 | B,,6 | z B,B, z[K:treble] B,B, | z FF z [DF][DF] | %18
 z[K:bass] B,B, z _EE | z [B,D][B,D] [B,D][B,D][B,D] | z B,B, z B,B, | z[K:treble] FF z DD | %22
 z CC z _EE | z F[K:bass]A, G,2 F, | B,,F,F, B,,[F,B,][F,B,] | B,,[F,B,][F,B,] B,,[F,B,][F,B,] | %26
 _E,B,B, E,[G,B,][G,B,] | B,,[F,B,][F,B,] [F,B,][F,B,][F,B,] | [B,,F,]3 [C,F,]2 [D,B,] | %29
 [_E,B,]3 [E,B,]3 | [F,B,F]3 [F,A,_E]3 | [B,,B,]6 |] %32
V:3
 x6 | x6 | z3 .A,3 | x6 | x6 | x6 | x6 | x6 | x6 | x6 | z3 .A,3 | x6 | x6 | x6 | %14
 F,3- F,-[F,G,][F,A,_E] | x6 | D,3 z3[K:treble] | x6 | x[K:bass] x5 | x6 | x6 | x[K:treble] x5 | %22
 x6 | x2[K:bass] x4 | x6 | x6 | x6 | x6 | x6 | x6 | x6 | x6 |] %32
V:4
 x6 | x6 | x6 | x6 | x6 | x6 | x6 | x6 | x6 | x6 | x6 | x6 | x6 | x6 | .A6 | x6 | z3[K:bass] F,3 | %17
 D3 B,3 | G,3 B,3 | F,6 | D,3 F,3[K:treble] | D3 B,3 | G,3 C3 | C6 | z B,B, z DD | z DD z DD | %26
 z _EE z EE | z DD DDD | x6 | z3 G3 | x6 | x6 |] %32
V:5
 x6 | x6 | x6 | x6 | x6 | x6 | x6 | x6 | x6 | x6 | x6 | x6 | x6 | x6 | z3 ._E3 | x6 | %16
 x[K:bass] x5 | x6 | x6 | x6 | x5[K:treble] x | x6 | x6 | x6 | x6 | x6 | x6 | x6 | x6 | x6 | x6 | %31
 x6 |] %32

